hero/solid/minus-circle.svg

<svg width="24" height="24" viewBox="0 0 24 24" fill="none" xmlns="http://www.w3.org/2000/svg">
<path fill-rule="evenodd" clip-rule="evenodd" d="M12 2.25C6.61522 2.25 2.25 6.61522 2.25 12C2.25 17.3848 6.61522 21.75 12 21.75C17.3848 21.75 21.75 17.3848 21.75 12C21.75 6.61522 17.3848 2.25 12 2.25ZM15 12.75C15.4142 12.75 15.75 12.4142 15.75 12C15.75 11.5858 15.4142 11.25 15 11.25H9C8.58579 11.25 8.25 11.5858 8.25 12C8.25 12.4142 8.58579 12.75 9 12.75H15Z" fill="#0F172A"/>
</svg>

<svg viewBox="0 0 24 24" xmlns="http://www.w3.org/2000/svg"><path fill-rule="evenodd" d="M12 2.25c-5.385 0-9.75 4.36-9.75 9.75 0 5.38 4.36 9.75 9.75 9.75 5.38 0 9.75-4.37 9.75-9.75 0-5.39-4.37-9.75-9.75-9.75Zm3 10.5v0c.41 0 .75-.34.75-.75 0-.42-.34-.75-.75-.75H9v0c-.42 0-.75.33-.75.75 0 .41.33.75.75.75h6Z"/></svg>
